X: 13539
T: Flowers Of The Red Mill, The
R: reel
M: 4/4
K: Adorian
aged BAGA|(3BAG dG eGdG|aged BAGA|B2dB BAA2:|
~a3f g2ag|eaaf gedg|~a3f g2ag|egdB BAA2|
~a3f g2ag|eaaf gedg|bgaf gedB|egdB BAA2||

